assets/social-grey/SocialGrey10.svg

<svg xmlns="http://www.w3.org/2000/svg" viewBox="0 0 32 32"><path d="M9.4 1.1L0 7.3l6.5 5.2L16 6.6z"/><path d="M0 17.7l9.4 6.1 6.6-5.5-9.5-5.8zM16 18.3l6.6 5.5 9.4-6.1-6.5-5.2zM32 7.3l-9.4-6.2L16 6.6l9.5 5.9z"/><path d="M16 19.5L9.4 25l-2.8-1.8v2l9.4 5.7 9.5-5.7v-2L22.6 25z"/></svg>

<svg xmlns="http://www.w3.org/2000/svg" x="0" y="0" version="1.1" xml:space="preserve" viewBox="0 0 32 32"><path d="M9.4 1.1 0 7.3 6.5 12.5 16 6.6z"/><path d="M0 17.7 9.4 23.8 16 18.3 6.5 12.5z"/><path d="M16 18.3 22.6 23.8 32 17.7 25.5 12.5z"/><path d="M32 7.3 22.6 1.1 16 6.6 25.5 12.5z"/><path d="M16 19.5 9.4 25 6.6 23.2 6.6 25.2 16 30.9 25.5 25.2 25.5 23.2 22.6 25z"/></svg>
